icons/mail.svg

<svg xmlns="http://www.w3.org/2000/svg" viewBox="0 0 24 24" fill="currentColor">
  <path d="M3.75 8c0-1.28579.96421-2.25 2.25-2.25h12c1.2858 0 2.25.96421 2.25 2.25v8c0 1.1858-1.0642 2.25-2.25 2.25H6c-1.28579 0-2.25-.9642-2.25-2.25V8ZM6 4.25C3.88579 4.25 2.25 5.88579 2.25 8v8c0 2.1142 1.63579 3.75 3.75 3.75h12c2.0142 0 3.75-1.7358 3.75-3.75V8c0-2.11421-1.6358-3.75-3.75-3.75H6Zm.341 4.08196c-.3689-.18837-.82066-.04203-1.00904.32687-.18837.3689-.04203.82066.32687 1.00904l4.69997 2.40003.0057.0029c1.0224.5111 2.1587.4951 3.24.0145.0123-.0055.0245-.0113.0365-.0174l4.7-2.40003c.3689-.18838.5152-.64014.3269-1.00904-.1884-.3689-.6402-.51524-1.0091-.32687l-4.681 2.39034c-.7109.3109-1.3675.2933-1.9398.0081L6.341 8.33196Z"/>
</svg>

<svg width="24" height="24" viewBox="0 0 24 24" fill="none" xmlns="http://www.w3.org/2000/svg">
<path fill-rule="evenodd" clip-rule="evenodd" d="M3.75 8C3.75 6.71421 4.71421 5.75 6 5.75H18C19.2858 5.75 20.25 6.71421 20.25 8V16C20.25 17.1858 19.1858 18.25 18 18.25H6C4.71421 18.25 3.75 17.2858 3.75 16V8ZM6 4.25C3.88579 4.25 2.25 5.88579 2.25 8V16C2.25 18.1142 3.88579 19.75 6 19.75H18C20.0142 19.75 21.75 18.0142 21.75 16V8C21.75 5.88579 20.1142 4.25 18 4.25H6ZM6.341 8.33196C5.9721 8.14359 5.52034 8.28993 5.33196 8.65883C5.14359 9.02773 5.28993 9.47949 5.65883 9.66787L10.3588 12.0679L10.3588 12.0679L10.3645 12.0708C11.3869 12.5819 12.5232 12.5659 13.6045 12.0853C13.6168 12.0798 13.629 12.074 13.641 12.0679L18.341 9.66787C18.7099 9.47949 18.8562 9.02773 18.6679 8.65883C18.4795 8.28993 18.0277 8.14359 17.6588 8.33196L12.9778 10.7223C12.2669 11.0332 11.6103 11.0156 11.038 10.7304L6.341 8.33196Z" fill="black"/>
</svg>
